X:4
%%scale 0.8
T:Out from the deep
T:Tenor Viol II
C:Thomas Tallis
%%measurenb 0
L:1/4
M:4/4
K:C clef=alto
 C2 C C | C C _B, G, | D D C C | C/C/ B, A,3/2 A,/ | 
w:Out from the deep I call to thee: O Lord hear my in- vo- ca- ti- 
G,2 z G, | C C D D | D C D B, | C3/2 C/ C C |  B,3/2 B,/ C C | C G, B, A, |  
w: on. Thine ears bow down, in- cline to me and hear my la- men- ta- ti- on. For if thou wilt our
C3/2 C/ G, z | z C C F, | A,2 G, C | B, C A, D- | 
w:sins be- hold, that we have done from time to tide, from time
D/C/B,/A,/ B, G, | C3/2 B,/ A,/G,/ A, | A, F, G, C, | G,3/2 F,/ E,/D,/ E,- | 
w:_  to__ tide. O Lord who then_ dare be so bold. O Lord, who then_ dare
E,/D,/ G,3/2 A,/ F, | G, G, D3/2 D/ | C B, A, A, | G, G, F, E, | D,2 C, C | 
w:__ be so_ bold as in thy sight for to a- bide, for to a - bide. For 
C G, B, A, | C3/2 C/ G, z | z C C F, | A,2 G, C |  B, C A, D- | 
w: if thou wilt our sins be- hold, that we have done from time to tide, from time 
 D/C/B,/A,/ B, G, | C3/2 B,/ A,/G,/ A, | A, F, G, C, | G,3/2 F,/ E,/D,/ E,- |  E,/D,/ G,3/2 A,/ F, | 
w:_ to__ tide. O Lord, who then_ dare be so bold, O Lord who then_ dare__ be so_
 G, G, D3/2 D/ | C B, A, A, | G, G, F, E, | D,2 C,2- | HC,4 |] %38
w: bold as in thy sight for to a- bide, for to a - bide._

